src/images/symbol-defs.svg

<svg aria-hidden="true" style="position:absolute;width:0;height:0;overflow:hidden" xmlns="http://www.w3.org/2000/svg">
  <defs>
    <symbol id="arrow-left-icon" viewBox="0 0 32 32">
      <path stroke-linejoin="round" stroke-linecap="round" stroke-width="2.67"
        d="M25.33 16H6.67M16 25.33 6.67 16 16 6.67" />
    </symbol>
    <symbol id="arrow-right-icon" viewBox="0 0 32 32">
      <path stroke-linejoin="round" stroke-linecap="round" stroke-width="2.67"
        d="M6.67 16h18.66M16 25.33 25.33 16 16 6.67" />
    </symbol>
    <symbol id="close-icon" viewBox="0 0 32 32">
      <path stroke-width="2.13" d="m8.53 8.53 14.94 14.94M8.53 23.47 23.47 8.53" />
    </symbol>
    <symbol id="film-icon" viewBox="0 0 32 32">
      <path fill="none" stroke="#fff" style="stroke:var(--color1, #fff)" stroke-linejoin="round" stroke-linecap="round"
        stroke-width="2.67"
        d="M26.43 2.67H5.57a2.9 2.9 0 0 0-2.9 2.9v20.86c0 1.6 1.3 2.9 2.9 2.9h20.86c1.6 0 2.9-1.3 2.9-2.9V5.57c0-1.6-1.3-2.9-2.9-2.9zM9.33 2.67v26.66M22.67 2.67v26.66M2.67 16h26.66M2.67 9.33h6.66M2.67 22.67h6.66M22.67 22.67h6.66M22.67 9.33h6.66" />
    </symbol>
    <symbol id="heart-icon" viewBox="0 0 32 32">
      <path fill="#ff6b08"
        d="m16 30.14-2.24-2.21C5.44 20.63 0 15.73 0 9.7A8.63 8.63 0 0 1 8.8.99 9.65 9.65 0 0 1 16 4.32 9.66 9.66 0 0 1 23.2 1C28.16 1 32 4.8 32 9.71c0 6.02-5.44 10.93-13.76 18.22L16 30.14z" />
    </symbol>
    <symbol id="search-icon" viewBox="0 0 32 32">
      <path fill="none" stroke="#fff" style="stroke:var(--color1, #fff)" stroke-linejoin="round" stroke-linecap="round"
        stroke-width="2.67" d="M14.67 25.33a10.67 10.67 0 1 0 0-21.33 10.67 10.67 0 0 0 0 21.33zM28 28l-5.8-5.8" />
    </symbol>
    <symbol id="icon-close-black-18dp-2-1-1" viewBox="0 0 32 32">
      <path
        d="M26.684 7.308l-1.971-1.971-7.813 7.813-7.813-7.813-1.971 1.971 7.813 7.813-7.813 7.813 1.971 1.971 7.813-7.813 7.813 7.813 1.971-1.971-7.813-7.813 7.813-7.813z">
      </path>
    </symbol>

    <symbol id="icon-fond" width="242" height="64" viewBox="0 0 117 19" fill="none">
      <path
        d="M23.9675 1.03113H26.065L25.9127 1.48251H24.5176V2.39444H24.7899C25.1728 2.39444 25.4768 2.44169 25.7131 2.5623C26.0333 2.72451 26.2061 3.01368 26.2061 3.42697C26.2061 4.04621 25.8337 4.4863 24.8378 4.4863H23.9668V1.03113H23.9675ZM24.854 4.03069C25.3943 4.03069 25.6461 3.84168 25.6461 3.44319C25.6461 3.20692 25.5572 3.03977 25.3943 2.9502C25.2525 2.87121 25.0536 2.85076 24.8019 2.85076H24.5183V4.03069H24.854Z"
        fill="black" />
      <path
        d="M26.7295 4.49781V3.98859C26.7817 3.99917 26.8184 3.99917 26.8395 3.99917C26.9862 3.99917 27.123 3.92582 27.2274 3.75796C27.542 3.25933 27.7522 1.97995 27.8354 1.03064H29.5767V4.48652H29.021V1.48202H28.2973C28.2183 2.37914 27.9877 3.59011 27.6414 4.11977C27.4524 4.40259 27.2112 4.51262 26.8966 4.51262C26.8656 4.51332 26.7824 4.51332 26.7295 4.49781Z"
        fill="black" />
      <path
        d="M31.5952 1.01514H32.0198L33.3887 4.48653H32.7963L32.4556 3.6007H31.1763L30.8455 4.48653H30.2686L31.5952 1.01514ZM32.2878 3.15002L32.0043 2.36364C31.9097 2.08082 31.8576 1.92354 31.8209 1.80787H31.8103C31.7786 1.92848 31.7264 2.08575 31.6213 2.36364L31.3378 3.15002H32.2878Z"
        fill="black" />
      <path d="M34.0859 1.03113H35.9683L35.8111 1.49732H34.6368V4.4863H34.0859V1.03113Z" fill="black" />
      <path
        d="M36.46 2.77189C36.46 1.72313 37.1779 0.999512 38.1851 0.999512C39.1972 0.999512 39.9053 1.73371 39.9053 2.77189C39.9053 3.8418 39.1711 4.53932 38.1851 4.53932C37.1836 4.54003 36.46 3.83616 36.46 2.77189ZM39.3227 2.77189C39.3227 1.99043 38.8925 1.46641 38.1844 1.46641C37.5031 1.46641 37.0461 1.96504 37.0461 2.77189C37.0461 3.57943 37.5024 4.07243 38.1844 4.07243C38.8671 4.07243 39.3227 3.57943 39.3227 2.77189Z"
        fill="black" />
      <path
        d="M40.4961 4.01518H40.7063C41.183 3.42274 41.5188 2.36341 41.7233 1.03113H43.3546V4.01518H43.7898V5.45677H43.2552V4.48701H41.0314V5.45748H40.4968V4.01518H40.4961ZM42.8038 1.48251H42.1591C41.9962 2.60391 41.6662 3.48057 41.3248 4.0046V4.01518H42.8038V1.48251Z"
        fill="black" />
      <path d="M44.5742 1.03113H45.125V4.48701H44.5742V1.03113Z" fill="black" />
      <path
        d="M46.1892 1.03129H46.74V2.99268C46.74 3.20779 46.7344 3.40174 46.7294 3.58511H46.74C46.85 3.41796 46.9869 3.22894 47.1646 2.99761L48.6436 1.03129H49.1838V4.48717H48.633V2.42563C48.633 2.19994 48.633 2.02221 48.6436 1.86987H48.633C48.518 2.03279 48.3868 2.2218 48.2133 2.44185L46.6765 4.48717H46.1885V1.03129H46.1892ZM46.8028 0.0297852H47.2647C47.2647 0.265349 47.3804 0.459302 47.6999 0.459302C48.0145 0.459302 48.1301 0.265349 48.1301 0.0297852H48.597C48.6076 0.517135 48.2825 0.868366 47.6999 0.868366C47.1075 0.868366 46.7873 0.517135 46.8028 0.0297852Z"
        fill="black" />
      <path
        d="M50.252 1.03113H50.8028V2.48895H52.5335V1.03113H53.0844V4.48701H52.5335V2.95584H50.8028V4.48701H50.252V1.03113Z"
        fill="black" />
      <path
        d="M54.1462 1.03113H54.697V2.99252C54.697 3.20763 54.6914 3.40158 54.6865 3.58495H54.697C54.8071 3.4178 54.9439 3.22879 55.1216 2.99745L56.6006 1.03113H57.1408V4.48701H56.59V2.42547C56.59 2.19978 56.59 2.02205 56.6006 1.86971H56.59C56.4751 2.03263 56.3439 2.22164 56.1704 2.44169L54.6336 4.48701H54.1455V1.03113H54.1462Z"
        fill="black" />
      <path
        d="M58.2097 1.03129H58.7605V2.99268C58.7605 3.20779 58.7549 3.40174 58.7499 3.58511H58.7605C58.8705 3.41796 59.0074 3.22894 59.1851 2.99761L60.6641 1.03129H61.2043V4.48717H60.6535V2.42563C60.6535 2.19994 60.6535 2.02221 60.6641 1.86987H60.6535C60.5385 2.03279 60.4073 2.2218 60.2338 2.44185L58.697 4.48717H58.209V1.03129H58.2097ZM58.8233 0.0297852H59.2852C59.2852 0.265349 59.4009 0.459302 59.7204 0.459302C60.035 0.459302 60.1506 0.265349 60.1506 0.0297852H60.6175C60.6281 0.517135 60.303 0.868366 59.7204 0.868366C59.1273 0.868366 58.8078 0.517135 58.8233 0.0297852Z"
        fill="black" />
      <path
        d="M64.9099 4.10899C63.9973 4.04058 63.457 3.59555 63.457 2.75555C63.457 1.92755 64.0128 1.45501 64.9099 1.38731V0.952148H65.4607V1.38731C66.3579 1.46066 66.903 1.93813 66.903 2.75555C66.903 3.60048 66.3579 4.04058 65.4607 4.10899V4.58082H64.9099V4.10899ZM64.9099 1.85914C64.3436 1.90639 64.0184 2.19486 64.0184 2.75626C64.0184 3.30709 64.3175 3.59061 64.9099 3.63222V1.85914ZM66.3416 2.75626C66.3416 2.22166 66.0482 1.91204 65.4607 1.86478V3.63222C66.0271 3.5899 66.3416 3.33318 66.3416 2.75626Z"
        fill="black" />
      <path
        d="M67.6611 2.77189C67.6611 1.72313 68.3791 0.999512 69.3863 0.999512C70.3983 0.999512 71.1064 1.73371 71.1064 2.77189C71.1064 3.8418 70.3722 4.53932 69.3863 4.53932C68.3848 4.54003 67.6611 3.83616 67.6611 2.77189ZM70.5246 2.77189C70.5246 1.99043 70.0944 1.46641 69.3863 1.46641C68.705 1.46641 68.2479 1.96504 68.2479 2.77189C68.2479 3.57943 68.7042 4.07243 69.3863 4.07243C70.0683 4.07243 70.5246 3.57943 70.5246 2.77189Z"
        fill="black" />
      <path
        d="M72.0225 1.03113H72.5733V2.48895H74.3041V1.03113H74.8549V4.48701H74.3041V2.95584H72.5733V4.48701H72.0225V1.03113Z"
        fill="black" />
      <path
        d="M75.5928 4.01518H75.8029C76.2797 3.42274 76.6154 2.36341 76.82 1.03113H78.4513V4.01518H78.8864V5.45677H78.3518V4.48701H76.1281V5.45748H75.5935V4.01518H75.5928ZM77.8997 1.48251H77.2551C77.0922 2.60391 76.7621 3.48057 76.4208 4.0046V4.01518H77.8997V1.48251Z"
        fill="black" />
      <path
        d="M29.8651 17.7169C29.0696 18.1386 28.2867 18.2952 27.5391 18.2952C25.1045 18.2952 23.6826 16.6194 23.6826 14.2934C23.6826 11.9914 25.297 10.1591 27.7084 10.1591C28.5639 10.1591 29.2868 10.3516 29.7085 10.5815V11.5816C29.1422 11.2798 28.5272 11.0752 27.7323 11.0752C25.9247 11.0752 24.816 12.5098 24.816 14.2455C24.816 16.1011 25.9127 17.379 27.6604 17.379C28.408 17.379 29.0103 17.1625 29.5647 16.8606L29.8651 17.7169Z"
        fill="black" />
      <path
        d="M31.6992 10.2324H35.713L35.3871 11.1486H32.772V13.6671H35.3632V14.5826H32.772V17.2584H35.7609V18.1746H31.6992V10.2324Z"
        fill="black" />
      <path
        d="M37.957 10.2324H39.5841C40.3557 10.2324 40.8974 10.3523 41.3318 10.5942C42.0794 11.004 42.5251 11.7509 42.5251 12.7757C42.5251 13.6918 42.1274 14.5713 41.1273 15.0178C40.7175 15.1983 40.1991 15.3069 39.4882 15.3069H39.0305V18.1753H37.9577V10.2324H37.957ZM39.5601 14.4267C40.0418 14.4267 40.3917 14.3421 40.6449 14.2095C41.1632 13.9443 41.4044 13.4506 41.4044 12.7757C41.4044 12.1494 41.1632 11.643 40.6928 11.3658C40.4276 11.2092 40.0785 11.1119 39.5721 11.1119H39.0298V14.4267H39.5601Z"
        fill="black" />
      <path d="M44.5527 10.2324H48.6864L48.3606 11.1486H45.6128V18.1746H44.5527V10.2324Z" fill="black" />
      <path d="M50.2314 10.2324H51.3042V18.1746H50.2314V10.2324Z" fill="black" />
      <path
        d="M54.4155 15.6433C54.7286 15.053 54.9339 14.7272 55.259 14.5466V14.5227C54.3309 14.2215 53.8604 13.4866 53.8604 12.5584C53.8604 11.016 54.9811 10.2324 56.4763 10.2324H58.6458V18.1746H57.573V14.8845H56.3677C56.1265 14.8845 55.8373 15.1377 55.4882 15.8486L54.3556 18.1746H53.1143L54.4155 15.6433ZM56.5849 14.0043H57.573V11.1119H56.6209C55.6568 11.1119 54.9699 11.6063 54.9699 12.6064C54.9699 13.5825 55.6688 14.0043 56.5849 14.0043Z"
        fill="black" />
      <path d="M64.2646 10.2324H70.2426V18.1746H69.1699V11.1486H65.3254V18.1746H64.2646V10.2324Z" fill="black" />
      <path
        d="M72.7529 10.2324H74.38C75.1516 10.2324 75.6932 10.3523 76.1277 10.5942C76.8753 11.004 77.321 11.7509 77.321 12.7757C77.321 13.6918 76.9233 14.5713 75.9232 15.0178C75.5134 15.1983 74.995 15.3069 74.2841 15.3069H73.8264V18.1753H72.7536V10.2324H72.7529ZM74.356 14.4267C74.8384 14.4267 75.1876 14.3421 75.4408 14.2095C75.9591 13.9443 76.2003 13.4506 76.2003 12.7757C76.2003 12.1494 75.9591 11.643 75.4887 11.3658C75.2235 11.2092 74.8744 11.1119 74.368 11.1119H73.8257V14.4267H74.356Z"
        fill="black" />
      <path
        d="M79.3486 10.2324H80.4094V15.029C80.4094 15.5834 80.4094 15.9812 80.3854 16.4029H80.4094C80.6746 16.0171 81.0117 15.5227 81.4821 14.9204L85.0135 10.2324H86.0495V18.1746H84.9768V13.1967C84.9768 12.6184 84.9888 12.2446 85.0015 11.8708H84.9768C84.7116 12.2566 84.3745 12.727 83.94 13.3053L80.2641 18.1746H79.3486V10.2324Z"
        fill="black" />
      <path d="M90.054 11.1486H87.7646V10.2324H93.646L93.3202 11.1486H91.1267V18.1746H90.054V11.1486Z" fill="black" />
      <path
        d="M95.7584 18.2106V17.2824C95.903 17.3191 96.0356 17.3311 96.1802 17.3311C96.9038 17.3311 97.2169 16.8487 97.6746 15.9085L94.8662 10.2324H96.0596L98.217 14.7758H98.2417L100.206 10.2324H101.375L98.6035 16.3063C97.9652 17.7289 97.2536 18.2585 96.2775 18.2585C96.1442 18.2585 95.9157 18.2465 95.7584 18.2106Z"
        fill="black" />
      <path
        d="M101.426 18.2106V17.2105C101.534 17.2345 101.618 17.2345 101.667 17.2345C102.017 17.2345 102.354 17.0659 102.607 16.6441C103.343 15.3909 103.848 12.1607 104.006 10.2324H107.79V18.1746H106.718V11.1119H104.922C104.777 12.9203 104.235 15.9932 103.427 17.2944C103.018 17.9694 102.463 18.2465 101.764 18.2465C101.703 18.2465 101.534 18.2346 101.426 18.2106Z"
        fill="black" />
      <path
        d="M110.299 10.2324H111.36V15.029C111.36 15.5834 111.36 15.9812 111.336 16.4029H111.36C111.625 16.0171 111.962 15.5227 112.432 14.9204L115.964 10.2324H117V18.1746H115.927V13.1967C115.927 12.6184 115.939 12.2446 115.951 11.8708H115.927C115.662 12.2566 115.325 12.727 114.891 13.3053L111.215 18.1746H110.3V10.2324H110.299Z"
        fill="black" />
      <path d="M8.13281 0V15.3279H10.9695V2.83594H15.3281V8.1326H18.1647V0H8.13281Z" fill="#001E61" />
      <path d="M15.3281 15.3279V18.1638H18.1648V15.3279V10.9685H15.3281V15.3279Z" fill="#001E61" />
      <path d="M15.3274 8.13269H10.9688V10.9686H15.3274H18.164V8.13269H15.3274Z" fill="#D48232" />
      <path d="M2.83594 15.328V10.9686H8.1326V8.13269H0V18.1639H15.3279V15.328H2.83594Z" fill="#D48232" />
    </symbol>

  </defs>
</svg>

<svg aria-hidden="true" style="position:absolute;width:0;height:0;overflow:hidden" xmlns="http://www.w3.org/2000/svg">
  <defs>
    <symbol id="arrow-left-icon" viewBox="0 0 32 32">
      <path stroke-linejoin="round" stroke-linecap="round" stroke-width="2.67" d="M25.33 16H6.67M16 25.33 6.67 16 16 6.67"/>
    </symbol>
    <symbol id="arrow-right-icon" viewBox="0 0 32 32">
      <path stroke-linejoin="round" stroke-linecap="round" stroke-width="2.67" d="M6.67 16h18.66M16 25.33 25.33 16 16 6.67"/>
    </symbol>
    <symbol id="close-icon" viewBox="0 0 32 32">
      <path stroke-width="2.13" d="m8.53 8.53 14.94 14.94m-14.94 0L23.47 8.53"/>
    </symbol>
    <symbol id="film-icon" viewBox="0 0 32 32">
      <path fill="none" stroke="#fff" style="stroke:var(--color1, #fff)" stroke-linejoin="round" stroke-linecap="round" stroke-width="2.67" d="M26.43 2.67H5.57a2.9 2.9 0 0 0-2.9 2.9v20.86c0 1.6 1.3 2.9 2.9 2.9h20.86c1.6 0 2.9-1.3 2.9-2.9V5.57c0-1.6-1.3-2.9-2.9-2.9zm-17.1 0v26.66M22.67 2.67v26.66M2.67 16h26.66M2.67 9.33h6.66M2.67 22.67h6.66m13.34 0h6.66M22.67 9.33h6.66"/>
    </symbol>
    <symbol id="heart-icon" viewBox="0 0 32 32">
      <path fill="#ff6b08" d="m16 30.14-2.24-2.21C5.44 20.63 0 15.73 0 9.7A8.63 8.63 0 0 1 8.8.99 9.65 9.65 0 0 1 16 4.32 9.66 9.66 0 0 1 23.2 1C28.16 1 32 4.8 32 9.71c0 6.02-5.44 10.93-13.76 18.22L16 30.14z"/>
    </symbol>
    <symbol id="search-icon" viewBox="0 0 32 32">
      <path fill="none" stroke="#fff" style="stroke:var(--color1, #fff)" stroke-linejoin="round" stroke-linecap="round" stroke-width="2.67" d="M14.67 25.33a10.67 10.67 0 1 0 0-21.33 10.67 10.67 0 0 0 0 21.33zM28 28l-5.8-5.8"/>
    </symbol>
    <symbol id="icon-close-black-18dp-2-1-1" viewBox="0 0 32 32">
      <path d="m26.68 7.3-1.97-1.96-7.81 7.81-7.81-7.81L7.12 7.3l7.8 7.81-7.8 7.81 1.97 1.97 7.81-7.8 7.81 7.8 1.97-1.97-7.8-7.8 7.8-7.82z"/>
    </symbol>
    <symbol id="icon-fond" viewBox="0 0 117 19" fill="none">
      <path d="M23.97 1.03h2.1l-.16.45h-1.4v.91h.28c.38 0 .69.05.92.17.32.16.5.45.5.87 0 .62-.38 1.06-1.37 1.06h-.87V1.03Zm.88 3c.54 0 .8-.19.8-.59 0-.23-.1-.4-.26-.49-.14-.08-.34-.1-.59-.1h-.28v1.18h.33ZM26.73 4.5v-.51h.11c.15 0 .28-.06.39-.23a8 8 0 0 0 .6-2.73h1.75V4.5h-.56v-3h-.72a7.1 7.1 0 0 1-.66 2.63.82.82 0 0 1-.74.4c-.03 0-.12 0-.17-.02ZM31.6 1.02h.42l1.37 3.47h-.6l-.33-.89h-1.28l-.33.89h-.58l1.33-3.47Zm.69 2.13L32 2.36l-.18-.55h-.01a5.8 5.8 0 0 1-.19.55l-.28.79h.95ZM34.09 1.03h1.88l-.16.47h-1.17v2.99h-.55V1.03ZM36.46 2.77c0-1.05.72-1.77 1.73-1.77 1 0 1.72.73 1.72 1.77 0 1.07-.74 1.77-1.72 1.77-1 0-1.73-.7-1.73-1.77Zm2.86 0c0-.78-.43-1.3-1.14-1.3-.68 0-1.13.5-1.13 1.3s.45 1.3 1.13 1.3c.69 0 1.14-.5 1.14-1.3ZM40.5 4.02h.2c.48-.6.82-1.66 1.02-2.99h1.63v2.99h.44v1.44h-.53v-.97h-2.23v.97h-.53V4.02Zm2.3-2.54h-.64c-.16 1.12-.5 2-.84 2.52v.02h1.48V1.48ZM44.57 1.03h.55V4.5h-.55V1.03ZM46.19 1.03h.55V3l-.01.6h.01l.42-.6 1.48-1.96h.54V4.5h-.55V2.43l.01-.56c-.12.16-.25.35-.43.57L46.68 4.5h-.5V1.03Zm.61-1h.46c0 .24.12.43.44.43.31 0 .43-.2.43-.43h.47c0 .49-.32.84-.9.84-.6 0-.91-.35-.9-.84ZM50.25 1.03h.55V2.5h1.73V1.03h.55V4.5h-.55V2.96H50.8v1.53h-.55V1.03ZM54.15 1.03h.55V3l-.01.6.43-.6 1.48-1.96h.54V4.5h-.55V2.43l.01-.56h-.01l-.42.57-1.54 2.05h-.48V1.03ZM58.21 1.03h.55V3l-.01.6h.01l.43-.6 1.47-1.96h.54V4.5h-.55V2.43l.01-.56c-.12.16-.25.35-.43.57L58.7 4.5h-.5V1.03h.01Zm.61-1h.47c0 .24.11.43.43.43.31 0 .43-.2.43-.43h.47c0 .49-.32.84-.9.84-.6 0-.91-.35-.9-.84ZM64.91 4.1c-.91-.06-1.45-.5-1.45-1.34 0-.83.55-1.3 1.45-1.37V.95h.55v.44c.9.07 1.44.55 1.44 1.37 0 .84-.54 1.28-1.44 1.35v.47h-.55v-.47Zm0-2.24c-.57.05-.9.33-.9.9 0 .55.3.83.9.87V1.86Zm1.43.9c0-.54-.3-.85-.88-.9v1.77c.57-.04.88-.3.88-.87ZM67.66 2.77c0-1.05.72-1.77 1.73-1.77 1 0 1.72.73 1.72 1.77 0 1.07-.74 1.77-1.72 1.77-1 0-1.73-.7-1.73-1.77Zm2.86 0c0-.78-.43-1.3-1.13-1.3-.69 0-1.14.5-1.14 1.3s.45 1.3 1.14 1.3c.68 0 1.13-.5 1.13-1.3ZM72.02 1.03h.55V2.5h1.73V1.03h.55V4.5h-.55V2.96h-1.73v1.53h-.55V1.03ZM75.6 4.02h.2c.48-.6.82-1.66 1.02-2.99h1.63v2.99h.44v1.44h-.54v-.97h-2.22v.97h-.54V4.02Zm2.3-2.54h-.64c-.17 1.12-.5 2-.84 2.52v.02h1.48V1.48ZM29.87 17.72c-.8.42-1.58.58-2.33.58-2.44 0-3.86-1.68-3.86-4 0-2.3 1.62-4.14 4.03-4.14.85 0 1.58.2 2 .42v1c-.57-.3-1.18-.5-1.98-.5-1.8 0-2.91 1.43-2.91 3.17 0 1.85 1.1 3.13 2.84 3.13.75 0 1.35-.22 1.9-.52l.3.86ZM31.7 10.23h4.01l-.32.92h-2.62v2.52h2.6v.91h-2.6v2.68h3v.91H31.7v-7.94ZM37.96 10.23h1.62c.78 0 1.32.12 1.75.36.75.41 1.2 1.16 1.2 2.19 0 .91-.4 1.8-1.4 2.24a4 4 0 0 1-1.64.29h-.46v2.87h-1.07v-7.95Zm1.6 4.2c.48 0 .83-.09 1.08-.22.52-.27.76-.76.76-1.43 0-.63-.24-1.14-.7-1.41a2.14 2.14 0 0 0-1.13-.26h-.54v3.32h.53ZM44.55 10.23h4.14l-.33.92h-2.75v7.02h-1.06v-7.94ZM50.23 10.23h1.07v7.94h-1.07v-7.94ZM54.42 15.64c.3-.59.51-.91.84-1.1v-.02a1.94 1.94 0 0 1-1.4-1.96c0-1.54 1.12-2.33 2.62-2.33h2.17v7.94h-1.08v-3.29h-1.2c-.24 0-.53.26-.88.97l-1.13 2.32H53.1l1.3-2.53ZM56.58 14h1v-2.89h-.96c-.96 0-1.65.5-1.65 1.5 0 .97.7 1.4 1.61 1.4ZM64.26 10.23h5.98v7.94h-1.07v-7.02h-3.84v7.02h-1.07v-7.94ZM72.75 10.23h1.63c.77 0 1.31.12 1.75.36.75.41 1.2 1.16 1.2 2.19 0 .91-.4 1.8-1.4 2.24a4 4 0 0 1-1.65.29h-.45v2.87h-1.08v-7.95Zm1.6 4.2c.49 0 .84-.09 1.1-.22.5-.27.75-.76.75-1.43 0-.63-.24-1.14-.71-1.41a2.14 2.14 0 0 0-1.12-.26h-.54v3.32h.53ZM79.35 10.23h1.06v4.8c0 .55 0 .95-.02 1.37h.02c.26-.38.6-.88 1.07-1.48l3.53-4.69h1.04v7.94h-1.07V13.2c0-.58 0-.96.02-1.33h-.02c-.27.39-.6.86-1.04 1.44l-3.68 4.86h-.91v-7.94ZM90.05 11.15h-2.29v-.92h5.89l-.33.92h-2.2v7.02h-1.07v-7.02ZM95.76 18.21v-.93c.14.04.28.05.42.05.72 0 1.04-.48 1.5-1.42l-2.81-5.68h1.19l2.16 4.55h.02l1.97-4.55h1.17l-2.78 6.08c-.63 1.42-1.35 1.95-2.32 1.95a2.7 2.7 0 0 1-.52-.05ZM101.43 18.21v-1c.1.02.19.02.24.02.35 0 .68-.16.94-.59.73-1.25 1.24-4.48 1.4-6.4h3.78v7.93h-1.07v-7.06h-1.8c-.14 1.81-.69 4.88-1.5 6.18a1.81 1.81 0 0 1-2 .92ZM110.3 10.23h1.06v4.8c0 .55 0 .95-.02 1.37h.02c.27-.38.6-.88 1.07-1.48l3.53-4.69H117v7.94h-1.07V13.2c0-.58 0-.96.02-1.33h-.02c-.27.39-.6.86-1.04 1.44l-3.67 4.86h-.92v-7.94Z" fill="#000"/>
      <path d="M8.13 0v15.33h2.84V2.83h4.36v5.3h2.83V0H8.13ZM15.33 15.33v2.83h2.83v-7.19h-2.83v4.36Z" fill="#001E61"/>
      <path d="M15.33 8.13h-4.36v2.84h7.19V8.13h-2.83Z" fill="#D48232"/>
      <path d="M2.84 15.33v-4.36h5.3V8.13H0v10.03h15.33v-2.83H2.83Z" fill="#D48232"/>
    </symbol>
  </defs>
</svg>
